X:1
T:Paddy Backwards
M:3/4
L:1/4
K:C
 C| C C C| G G G| E C C| C z C| C C C| G2 G/2G/2| E C D| D z D| D2 D/2D/2|\
 G2 G/2G/2| E C C| F z E| E D C| C D C| C D C| B, A, G,| C z C/2C/2|\
 C D E| G2 z| z2 G/2G/2| G z G/2G/2| G F D| C z||
